assets/icons/category.svg

<svg id="eo1jFuyLr9h1" xmlns="http://www.w3.org/2000/svg" xmlns:xlink="http://www.w3.org/1999/xlink" viewBox="0 0 24 24" shape-rendering="geometricPrecision" text-rendering="geometricPrecision"><g><path d="M10,13h-7c-.26522,0-.51957.1054-.70711.2929s-.29289.4419-.29289.7071v7c0,.2652.10536.5196.29289.7071s.44189.2929.70711.2929h7c.2652,0,.5196-.1054.7071-.2929s.2929-.4419.2929-.7071v-7c0-.2652-.1054-.5196-.2929-.7071s-.4419-.2929-.7071-.2929ZM9,20h-5v-5h5v5ZM21,2h-7c-.2652,0-.5196.10536-.7071.29289s-.2929.44189-.2929.70711v7c0,.2652.1054.5196.2929.7071s.4419.2929.7071.2929h7c.2652,0,.5196-.1054.7071-.2929s.2929-.4419.2929-.7071v-7c0-.26522-.1054-.51957-.2929-.70711s-.4419-.29289-.7071-.29289v0ZM20,9h-5v-5h5v5Zm1,4h-7c-.2652,0-.5196.1054-.7071.2929s-.2929.4419-.2929.7071v7c0,.2652.1054.5196.2929.7071s.4419.2929.7071.2929h7c.2652,0,.5196-.1054.7071-.2929s.2929-.4419.2929-.7071v-7c0-.2652-.1054-.5196-.2929-.7071s-.4419-.2929-.7071-.2929Zm-1,7h-5v-5h5v5ZM10,2h-7c-.26522,0-.51957.10536-.70711.29289s-.29289.44189-.29289.70711v7c0,.2652.10536.5196.29289.7071s.44189.2929.70711.2929h7c.2652,0,.5196-.1054.7071-.2929s.2929-.4419.2929-.7071v-7c0-.26522-.1054-.51957-.2929-.70711s-.4419-.29289-.7071-.29289v0ZM9,9h-5v-5h5v5Z" fill="#acafc3"/></g></svg>

<svg width="24" height="24" viewBox="0 0 24 24" fill="none" xmlns="http://www.w3.org/2000/svg">
<g id="apps (1) 1">
<path id="Vector" d="M10 13H3C2.73478 13 2.48043 13.1054 2.29289 13.2929C2.10536 13.4804 2 13.7348 2 14V21C2 21.2652 2.10536 21.5196 2.29289 21.7071C2.48043 21.8946 2.73478 22 3 22H10C10.2652 22 10.5196 21.8946 10.7071 21.7071C10.8946 21.5196 11 21.2652 11 21V14C11 13.7348 10.8946 13.4804 10.7071 13.2929C10.5196 13.1054 10.2652 13 10 13ZM9 20H4V15H9V20ZM21 2H14C13.7348 2 13.4804 2.10536 13.2929 2.29289C13.1054 2.48043 13 2.73478 13 3V10C13 10.2652 13.1054 10.5196 13.2929 10.7071C13.4804 10.8946 13.7348 11 14 11H21C21.2652 11 21.5196 10.8946 21.7071 10.7071C21.8946 10.5196 22 10.2652 22 10V3C22 2.73478 21.8946 2.48043 21.7071 2.29289C21.5196 2.10536 21.2652 2 21 2V2ZM20 9H15V4H20V9ZM21 13H14C13.7348 13 13.4804 13.1054 13.2929 13.2929C13.1054 13.4804 13 13.7348 13 14V21C13 21.2652 13.1054 21.5196 13.2929 21.7071C13.4804 21.8946 13.7348 22 14 22H21C21.2652 22 21.5196 21.8946 21.7071 21.7071C21.8946 21.5196 22 21.2652 22 21V14C22 13.7348 21.8946 13.4804 21.7071 13.2929C21.5196 13.1054 21.2652 13 21 13ZM20 20H15V15H20V20ZM10 2H3C2.73478 2 2.48043 2.10536 2.29289 2.29289C2.10536 2.48043 2 2.73478 2 3V10C2 10.2652 2.10536 10.5196 2.29289 10.7071C2.48043 10.8946 2.73478 11 3 11H10C10.2652 11 10.5196 10.8946 10.7071 10.7071C10.8946 10.5196 11 10.2652 11 10V3C11 2.73478 10.8946 2.48043 10.7071 2.29289C10.5196 2.10536 10.2652 2 10 2V2ZM9 9H4V4H9V9Z" fill="#475AD7"/>
</g>
</svg>
